Illustration6(2).svg

<?xml version="1.0" encoding="UTF-8"?>
<svg width="1530px" height="310px" viewBox="0 0 1530 310" version="1.1" xmlns="http://www.w3.org/2000/svg" xmlns:xlink="http://www.w3.org/1999/xlink">
    <!-- Generator: Sketch 53.2 (72643) - https://sketchapp.com -->
    <title>Group 15 Copy</title>
    <desc>Created with Sketch.</desc>
    <defs>
        <linearGradient x1="50%" y1="1.47012247%" x2="50%" y2="168.195778%" id="linearGradient-1">
            <stop stop-color="#245FAB" offset="0%"></stop>
            <stop stop-color="#142E50" offset="99.9604096%"></stop>
        </linearGradient>
    </defs>
    <g id="Page-3" stroke="none" stroke-width="1" fill="none" fill-rule="evenodd">
        <g id="6" transform="translate(0.000000, -409.000000)">
            <g id="Group-15-Copy" transform="translate(0.000000, 409.000000)">
                <rect id="Rectangle" fill="url(#linearGradient-1)" x="0" y="110" width="1530" height="200"></rect>
                <g id="get-started" transform="translate(587.000000, 169.000000)">
                    <rect id="Rectangle" fill="#FF7575" x="0" y="0" width="402" height="82" rx="41"></rect>
                    <text id="Get-Started" font-family="Arial-BoldMT, Arial" font-size="34" font-weight="bold" letter-spacing="0.4614283" fill="#FFFFFF">
                        <tspan x="106.82982" y="31">Get Started</tspan>
                    </text>
                </g>
                <path d="M389.845966,309.550034 C388.52409,305.226236 386.893902,301.106525 384.955401,297.190903 C373.933921,274.928368 328.623609,279.767152 293.628435,244.42045 C258.633261,209.073749 236.722372,190.830663 247.693726,193.101458 C277.267366,199.222459 329.893878,220.984984 361.564995,252.290466 C378.37713,268.908509 389.980688,287.123313 396.37567,306.934878 C391.856963,281.117755 383.802854,234.545246 349.055645,226.392744 C301.595126,215.257406 283.724423,165.62258 264.839991,152.799431 C245.955559,139.976281 218.451719,139.790275 229.617267,135.006177 C247.242756,127.454189 339.109471,145.568947 366.191928,193.295711 C373.213085,205.668928 379.398531,220.662556 384.58993,236.021851 C383.66841,231.526012 382.79223,227.462628 381.96139,223.831698 C370.275988,172.764261 355.76635,159.48974 353.433764,114.981349 C350.982202,68.2027562 371.879105,87.0225042 391.619853,2.49444244 C394.443252,-9.59509266 416.667474,22.1995728 414.552112,99.1994106 C413.589074,134.254286 395.024801,181.276282 395.112251,233.193173 C395.132053,244.949359 399.149417,262.089368 402.877926,282.448417 C400.63731,246.201094 401.350352,217.619259 405.017051,196.702911 C412.440434,154.356904 442.895179,108.111285 464.584732,92.4550078 C470.89942,87.8968454 468.762588,108.803973 461.025533,156.274032 C453.288478,203.74409 417.780535,225.691901 412.95231,247.56832 C411.062557,256.130685 410.131082,268.333664 410.157884,284.177257 C414.151683,269.987486 420.654831,256.092483 429.667327,242.492248 C454.712477,204.698065 502.347159,172.65504 530.330659,160.858125 C540.712096,156.481655 522.705979,179.15719 495.182487,221.68614 C488.086867,232.6502 479.783075,241.028409 471.255049,247.848716 C471.446217,262.972774 470.068731,279.061251 466.091475,292.763623 C464.337919,298.804943 462.20744,304.400413 459.700038,309.550034 L451.454182,309.550034 C452.056272,297.91685 447.062208,281.61748 449.280958,262.702178 C432.797552,272.565963 418.855359,279.711082 415.502701,292.54585 C414.083115,297.980362 413.203047,303.648423 412.862496,309.550034 L389.845966,309.550034 Z M480.548522,309.550034 L474.190924,309.550034 C479.227897,287.460773 484.897726,270.114911 491.200409,257.512447 C505.090176,229.739309 537.233719,202.49233 556.759103,194.838187 C562.443716,192.609763 556.746855,206.532838 541.620402,237.747314 C526.493949,268.96179 495.246616,278.987703 487.316586,293.198561 C485.050705,297.259088 482.794684,302.709579 480.548522,309.550034 Z M497.717875,309.550034 L489.121335,309.550034 C493.315776,301.91117 498.811514,294.756589 505.608548,288.086292 C525.471732,268.593476 557.871272,255.810482 575.955904,252.5856 C582.665017,251.389219 568.991581,262.661891 547.02851,284.690202 C529.814031,301.955816 509.245397,303.064239 497.717875,309.550034 Z M298.595823,309.550034 L292.679993,309.550034 C288.687986,299.760304 284.930476,292.364889 281.407459,287.363778 C272.035431,274.059683 239.911281,267.354928 221.604891,237.892593 C203.298502,208.430258 196.177491,195.17894 202.063896,196.800953 C222.282394,202.372207 257.097936,226.110009 273.814698,252.279127 C282.239848,265.46821 290.500223,284.558512 298.595823,309.550034 Z M284.688731,309.550034 L278.776209,309.550034 C268.232498,300.208994 243.884243,304.651701 221.782248,286.699522 C197.636907,267.08765 182.860061,257.305995 189.657477,257.794528 C207.980131,259.111385 241.53837,268.437679 263.330295,285.747443 C272.215103,292.804824 279.334581,300.739021 284.688731,309.550034 Z M1137.8476,310 L1130.56516,310 C1136.13512,280.079966 1142.48874,256.619999 1149.626,239.620098 C1165.28238,202.328975 1201.90289,165.93873 1224.24118,155.826278 C1230.74474,152.882143 1224.3499,171.590015 1207.30972,213.506924 C1190.26954,255.423833 1154.49724,268.610261 1145.54133,287.682607 C1142.95019,293.200667 1140.38561,300.639798 1137.8476,310 Z M1157.40298,310 L1147.66667,310 C1152.41676,299.650197 1158.69125,289.978043 1166.49012,280.983537 C1189.09198,254.916631 1226.15828,238.025877 1246.88883,233.868744 C1254.57954,232.326513 1238.99832,247.378018 1214.01203,276.840613 C1194.30212,300.081567 1170.51956,301.226849 1157.40298,310 Z M1116.58201,310 L1104.92721,310 C1104.30981,294.007561 1097.79912,271.804175 1105.5045,246.560201 C1116.28863,211.229758 1120.65709,190.366634 1122.6779,198.592939 C1128.12505,220.76721 1131.15396,263.742834 1121.81338,295.496184 C1120.3089,300.610687 1118.56511,305.445292 1116.58201,310 Z M1327.01471,221.765409 C1332.2454,221.65763 1323.6115,231.064835 1302.35625,251.465479 C1281.101,271.866123 1258.53154,271.530198 1242.47569,279.671988 C1226.41984,287.813779 1213.61651,298.881968 1218.03976,291.096968 C1222.463,283.311967 1236.7029,270.446717 1255.96234,252.421431 C1275.22178,234.396146 1309.04844,222.135606 1327.01471,221.765409 Z M1338.16283,282.571143 C1353.07733,282.714561 1325.24628,295.207498 1300.36961,293.83911 C1275.49294,292.470722 1255.52334,294.063295 1245.33808,297.15386 C1235.15282,300.244426 1247.94069,284.952955 1270.76788,278.44234 C1293.59507,271.931726 1311.15517,282.311439 1338.16283,282.571143 Z" id="Combined-Shape" fill="#45B8FF" opacity="0.501395089"></path>
                <path d="M565.069505,169.034905 C566.173906,169.054182 567.053573,169.965104 567.034296,171.069505 C567.015018,172.173906 566.104097,173.053573 564.999695,173.034296 C563.895294,173.015018 563.015627,172.104097 563.034905,170.999695 C563.054182,169.895294 563.965104,169.015627 565.069505,169.034905 Z M870.069505,142.034905 C871.173906,142.054182 872.053573,142.965104 872.034296,144.069505 C872.015018,145.173906 871.104097,146.053573 869.999695,146.034296 C868.895294,146.015018 868.015627,145.104097 868.034905,143.999695 C868.054182,142.895294 868.965104,142.015627 870.069505,142.034905 Z M1264.06951,202.034905 C1265.17391,202.054182 1266.05357,202.965104 1266.0343,204.069505 C1266.01502,205.173906 1265.1041,206.053573 1263.9997,206.034296 C1262.89529,206.015018 1262.01563,205.104097 1262.0349,203.999695 C1262.05418,202.895294 1262.9651,202.015627 1264.06951,202.034905 Z M1002.58688,253.043631 C1003.96738,253.067728 1005.06697,254.20638 1005.04287,255.586881 C1005.01877,256.967383 1003.88012,258.066966 1002.49962,258.042869 C1001.11912,258.018773 1000.01953,256.880121 1000.04363,255.499619 C1000.06773,254.119118 1001.20638,253.019534 1002.58688,253.043631 Z" id="Combined-Shape" fill="#FFFFFF"></path>
            </g>
        </g>
    </g>
</svg>

<?xml version="1.0" encoding="utf-8"?>
<!-- Generator: Adobe Illustrator 22.1.0, SVG Export Plug-In . SVG Version: 6.00 Build 0)  -->
<svg version="1.1" id="Слой_1" xmlns="http://www.w3.org/2000/svg" xmlns:xlink="http://www.w3.org/1999/xlink" x="0px" y="0px"
	 viewBox="0 0 1530 310" style="enable-background:new 0 0 1530 310;" xml:space="preserve">
<style type="text/css">
	.st0{fill:url(#Rectangle_1_);}
	.st1{opacity:0.5014;fill:#45B8FF;enable-background:new    ;}
	.st2{fill:#FFFFFF;}
</style>
<title>Group 15 Copy</title>
<desc>Created with Sketch.</desc>
<g id="_x36_" transform="translate(0.000000, -409.000000)">
	<g id="Group-15-Copy" transform="translate(0.000000, 409.000000)">
		
			<linearGradient id="Rectangle_1_" gradientUnits="userSpaceOnUse" x1="459.2" y1="550.7853" x2="459.2" y2="549.118" gradientTransform="matrix(1530 0 0 -200 -701811 110270)">
			<stop  offset="0" style="stop-color:#245FAB"/>
			<stop  offset="0.9996" style="stop-color:#142E50"/>
		</linearGradient>
		<rect id="Rectangle" y="110" class="st0" width="1530" height="200"/>
		<g id="get-started" transform="translate(587.000000, 169.000000)">
		</g>
		<path id="Combined-Shape" class="st1" d="M389.8,309.6c-1.3-4.3-3-8.4-4.9-12.4c-11-22.3-56.3-17.4-91.3-52.8
			s-56.9-53.6-45.9-51.3c29.6,6.1,82.2,27.9,113.9,59.2c16.8,16.6,28.4,34.8,34.8,54.6c-4.5-25.8-12.6-72.4-47.3-80.5
			c-47.5-11.1-65.3-60.8-84.2-73.6c-18.9-12.8-46.4-13-35.2-17.8c17.6-7.6,109.5,10.6,136.6,58.3c7,12.4,13.2,27.4,18.4,42.7
			c-0.9-4.5-1.8-8.6-2.6-12.2c-11.7-51.1-26.2-64.3-28.5-108.9C351,68.2,371.9,87,391.6,2.5c2.8-12.1,25,19.7,22.9,96.7
			c-1,35.1-19.5,82.1-19.4,134c0,11.8,4,28.9,7.8,49.3c-2.2-36.2-1.5-64.8,2.1-85.7c7.4-42.3,37.9-88.6,59.6-104.2
			c6.3-4.6,4.2,16.3-3.6,63.8c-7.7,47.5-43.2,69.4-48.1,91.3c-1.9,8.6-2.8,20.8-2.8,36.6c4-14.2,10.5-28.1,19.5-41.7
			c25-37.8,72.7-69.8,100.7-81.6c10.4-4.4-7.6,18.3-35.1,60.8c-7.1,11-15.4,19.3-23.9,26.2c0.2,15.1-1.2,31.2-5.2,44.9
			c-1.8,6-3.9,11.6-6.4,16.8h-8.2c0.6-11.6-4.4-27.9-2.2-46.8c-16.5,9.9-30.4,17-33.8,29.8c-1.4,5.4-2.3,11.1-2.6,17H389.8z
			 M480.5,309.6h-6.4c5-22.1,10.7-39.4,17-52c13.9-27.8,46-55,65.6-62.7c5.7-2.2,0,11.7-15.1,42.9c-15.1,31.2-46.4,41.2-54.3,55.5
			C485.1,297.3,482.8,302.7,480.5,309.6z M497.7,309.6h-8.6c4.2-7.6,9.7-14.8,16.5-21.5c19.9-19.5,52.3-32.3,70.3-35.5
			c6.7-1.2-7,10.1-28.9,32.1C529.8,302,509.2,303.1,497.7,309.6z M298.6,309.6h-5.9c-4-9.8-7.7-17.2-11.3-22.2
			c-9.4-13.3-41.5-20-59.8-49.5s-25.4-42.7-19.5-41.1c20.2,5.6,55,29.3,71.8,55.5C282.2,265.5,290.5,284.6,298.6,309.6z
			 M284.7,309.6h-5.9c-10.5-9.3-34.9-4.9-57-22.9c-24.1-19.6-38.9-29.4-32.1-28.9c18.3,1.3,51.9,10.6,73.7,28
			C272.2,292.8,279.3,300.7,284.7,309.6z M1137.8,310h-7.3c5.6-29.9,11.9-53.4,19.1-70.4c15.7-37.3,52.3-73.7,74.6-83.8
			c6.5-2.9,0.1,15.8-16.9,57.7s-52.8,55.1-61.8,74.2C1143,293.2,1140.4,300.6,1137.8,310z M1157.4,310h-9.7c4.8-10.3,11-20,18.8-29
			c22.6-26.1,59.7-43,80.4-47.1c7.7-1.5-7.9,13.5-32.9,43C1194.3,300.1,1170.5,301.2,1157.4,310z M1116.6,310h-11.7
			c-0.6-16-7.1-38.2,0.6-63.4c10.8-35.3,15.2-56.2,17.2-48c5.4,22.2,8.5,65.1-0.9,96.9C1120.3,300.6,1118.6,305.4,1116.6,310z
			 M1327,221.8c5.2-0.1-3.4,9.3-24.7,29.7s-43.8,20.1-59.9,28.2c-16.1,8.1-28.9,19.2-24.4,11.4c4.4-7.8,18.7-20.7,37.9-38.7
			C1275.2,234.4,1309,222.1,1327,221.8z M1338.2,282.6c14.9,0.1-12.9,12.6-37.8,11.3s-44.8,0.2-55,3.3c-10.2,3.1,2.6-12.2,25.4-18.7
			C1293.6,271.9,1311.2,282.3,1338.2,282.6z"/>
		<path id="Combined-Shape_1_" class="st2" d="M565.1,169c1.1,0,2,0.9,2,2s-0.9,2-2,2c-1.1,0-2-0.9-2-2S564,169,565.1,169z
			 M870.1,142c1.1,0,2,0.9,2,2s-0.9,2-2,2c-1.1,0-2-0.9-2-2S869,142,870.1,142z M1264.1,202c1.1,0,2,0.9,2,2s-0.9,2-2,2
			c-1.1,0-2-0.9-2-2S1263,202,1264.1,202z M1002.6,253c1.4,0,2.5,1.2,2.5,2.5c0,1.4-1.2,2.5-2.5,2.5c-1.4,0-2.5-1.2-2.5-2.5
			C1000.1,254.1,1001.2,253,1002.6,253z"/>
	</g>
</g>
</svg>
